public/theme/icons/inactive-vegetarian.svg

<svg width="33" height="34" viewBox="0 0 33 34" fill="none" xmlns="http://www.w3.org/2000/svg">
<circle cx="15" cy="15" r="15" fill="#E1E1E1"/>
<path fill-rule="evenodd" clip-rule="evenodd" d="M29.7591 17.6922C29.9173 16.8188 30 15.919 30 15C30 6.71573 23.2843 0 15 0C6.71573 0 0 6.71573 0 15C0 23.2843 6.71573 30 15 30C15.8603 30 16.7037 29.9276 17.5244 29.7885L9.23602 21.5L19.6623 7.59543L29.7591 17.6922Z" fill="#E1E1E1"/>
<g filter="url(#filter0_d_105_29832)">
<path d="M21.0914 17.4178C19.756 22.2395 15.5391 22.93 11.5684 22.4178C5.32881 21.6128 11.9909 16.4237 10.7242 14.5464C8.28661 10.9339 8.12496 5.1538 17.1935 6.35072C21.2448 6.88543 22.4269 12.5962 21.0914 17.4178Z" fill="white"/>
<path d="M19.6498 16.7484C18.6265 20.4427 15.3956 20.9718 12.3533 20.5793C7.57251 19.9626 12.677 15.9867 11.7064 14.5483C9.83876 11.7804 9.71491 7.35176 16.6632 8.26883C19.7673 8.67852 20.673 13.0541 19.6498 16.7484Z" fill="#E1E1E1"/>
<circle cx="13.8943" cy="11.8994" r="1.77674" transform="rotate(15.4813 13.8943 11.8994)" fill="white"/>
</g>
<g filter="url(#filter1_d_105_29832)">
<path fill-rule="evenodd" clip-rule="evenodd" d="M27.1931 6.24394L6.24394 27.1931C5.43054 26.6027 4.67873 25.9327 4 25.1944L25.1944 4C25.9327 4.67873 26.6027 5.43054 27.1931 6.24394Z" fill="white"/>
</g>
<defs>
<filter id="filter0_d_105_29832" x="4.85742" y="4.19043" width="20.7588" height="24.3701" filterUnits="userSpaceOnUse" color-interpolation-filters="sRGB">
<feFlood flood-opacity="0" result="BackgroundImageFix"/>
<feColorMatrix in="SourceAlpha" type="matrix" values="0 0 0 0 0 0 0 0 0 0 0 0 0 0 0 0 0 0 127 0" result="hardAlpha"/>
<feOffset dy="2"/>
<feGaussianBlur stdDeviation="2"/>
<feComposite in2="hardAlpha" operator="out"/>
<feColorMatrix type="matrix" values="0 0 0 0 0 0 0 0 0 0 0 0 0 0 0 0 0 0 0.1 0"/>
<feBlend mode="normal" in2="BackgroundImageFix" result="effect1_dropShadow_105_29832"/>
<feBlend mode="normal" in="SourceGraphic" in2="effect1_dropShadow_105_29832" result="shape"/>
</filter>
<filter id="filter1_d_105_29832" x="0" y="2" width="31.1929" height="31.1931" filterUnits="userSpaceOnUse" color-interpolation-filters="sRGB">
<feFlood flood-opacity="0" result="BackgroundImageFix"/>
<feColorMatrix in="SourceAlpha" type="matrix" values="0 0 0 0 0 0 0 0 0 0 0 0 0 0 0 0 0 0 127 0" result="hardAlpha"/>
<feOffset dy="2"/>
<feGaussianBlur stdDeviation="2"/>
<feComposite in2="hardAlpha" operator="out"/>
<feColorMatrix type="matrix" values="0 0 0 0 0 0 0 0 0 0 0 0 0 0 0 0 0 0 0.1 0"/>
<feBlend mode="normal" in2="BackgroundImageFix" result="effect1_dropShadow_105_29832"/>
<feBlend mode="normal" in="SourceGraphic" in2="effect1_dropShadow_105_29832" result="shape"/>
</filter>
</defs>
</svg>

<svg xmlns="http://www.w3.org/2000/svg" width="33" height="34" fill="none"><circle cx="15" cy="15" r="15" fill="#E1E1E1"/><path fill="#E1E1E1" fill-rule="evenodd" d="M29.76 17.692c.157-.873.24-1.773.24-2.692 0-8.284-6.716-15-15-15S0 6.716 0 15s6.716 15 15 15c.86 0 1.704-.072 2.524-.212L9.236 21.5 19.662 7.595z" clip-rule="evenodd"/><g filter="url(#a)"><path fill="#fff" d="M21.091 17.418c-1.335 4.822-5.552 5.512-9.523 5-6.24-.805.423-5.994-.844-7.872-2.437-3.612-2.599-9.392 6.47-8.195 4.05.534 5.233 6.245 3.897 11.067"/><path fill="#E1E1E1" d="M19.65 16.748c-1.023 3.695-4.254 4.224-7.297 3.831-4.78-.616.324-4.592-.647-6.03-1.867-2.769-1.991-7.197 4.957-6.28 3.104.41 4.01 4.785 2.987 8.48"/><circle cx="13.894" cy="11.899" r="1.777" fill="#fff" transform="rotate(15.481 13.894 11.9)"/></g><g filter="url(#b)"><path fill="#fff" fill-rule="evenodd" d="m27.193 6.244-20.95 20.95a15 15 0 0 1-2.243-2L25.194 4c.739.679 1.409 1.43 2 2.244" clip-rule="evenodd"/></g><defs><filter id="a" width="20.759" height="24.37" x="4.857" y="4.19" color-interpolation-filters="sRGB" filterUnits="userSpaceOnUse"><feFlood flood-opacity="0" result="BackgroundImageFix"/><feColorMatrix in="SourceAlpha" result="hardAlpha" values="0 0 0 0 0 0 0 0 0 0 0 0 0 0 0 0 0 0 127 0"/><feOffset dy="2"/><feGaussianBlur stdDeviation="2"/><feComposite in2="hardAlpha" operator="out"/><feColorMatrix values="0 0 0 0 0 0 0 0 0 0 0 0 0 0 0 0 0 0 0.1 0"/><feBlend in2="BackgroundImageFix" result="effect1_dropShadow_105_29832"/><feBlend in="SourceGraphic" in2="effect1_dropShadow_105_29832" result="shape"/></filter><filter id="b" width="31.193" height="31.193" x="0" y="2" color-interpolation-filters="sRGB" filterUnits="userSpaceOnUse"><feFlood flood-opacity="0" result="BackgroundImageFix"/><feColorMatrix in="SourceAlpha" result="hardAlpha" values="0 0 0 0 0 0 0 0 0 0 0 0 0 0 0 0 0 0 127 0"/><feOffset dy="2"/><feGaussianBlur stdDeviation="2"/><feComposite in2="hardAlpha" operator="out"/><feColorMatrix values="0 0 0 0 0 0 0 0 0 0 0 0 0 0 0 0 0 0 0.1 0"/><feBlend in2="BackgroundImageFix" result="effect1_dropShadow_105_29832"/><feBlend in="SourceGraphic" in2="effect1_dropShadow_105_29832" result="shape"/></filter></defs></svg>
